X: 37023
T: Signepolskan
R: slip jig
M: 9/8
K: Dmajor
A-|A2f- fed c2d|Bc2 A3-A2F|G2B- BAG A2F|G2B- BAG ABc|
d2f- fed c2d|Bc2 A3-A2F|G2B- BAG ABc|d3 d3-d2:|
|:f|a2a- af2 g2a|b2b- ba2 f2d|B2g- gf2 e2d|dcd edc B2A|
a2a- af2 g2a|b2b- ba2 f2d|B2g- gf2 e2d|dcd BAB cBc|d3 d3-d2:|

